!!!SOCIAL_FUNCTION: songs connected with ceremonies
!!!SOCIAL_FUNCTION2: Bear dance
!!!PDT:	1929
!!!LING_GROUP: Caddoan
!!!LANG: Non-Tone
!!!REG: Oklahoma
!!!COM: Anon.
!!!OTL: Bear Dance Song (a)
!!!ODT: <1920//
!!!MPN: Dog Chief [Simond Adams]
!!!MLC: Pawnee, Oklahoma, United States of America
!! Song was recorded either 1919 or 1920.
!!!AGN: monody
!!!AMT: irregular
!!!RWG: Transcribed pitches, durations, and meters are only approximate.
!! Drum not recorded.
**kern
*ICvox
*Imale
*clefF4
*k[b-]
*M3/4
*MM84
=1-
8f
16f
16f
8f
32f
32e
16e
8.e
16e
*M2/4
=2
8.e
16e
8e
!! descending major seventh is correct
8F
=3
4F
4F
=4
8.e
!! descending major seventh is correct
16F
16e
!! descending major seventh is correct
8F
16F
=5
8f
8f
16f
8e
16e
=6
8e
8e
8.e
16e
*M3/4
=7
8e
!! descending major seventh is correct
8F
4F
8F
8F
=8
8F
8F
8F
8F
8F
16.F
32G
=9
8G
8G
16G
8F
16F
8F
8F
*M2/4
=10
4F
8D
16G
16F
=11
8F
8F
8G
16G
16F
=12
4F
8G
8F
=13
8F
8G
8F
8G
=14
4F
8.r
16f
=15
8.f
16d
8.d
16f
=16
8f
8f
4r
=17
8d
8F
8F
16F
16r
*M3/4
=18
8F
8G
8F
8G
8F
16.F
32F
=19
8G
8G
16G
8F
16F
8F
8F
*M2/4
=20
4F
8D
16G
16F
=21
4F
8F
16F
16F
=22
4F
8G
8F
=23
8F
8G
8F
8G
=24
4F
4r
==
*-
!!!HAO:    In describing this next song Dog Chief said that his
!!!HAO: father took part in the war against the Sioux and chased
!!!HAO: a member of that tribe who held a shield over his back
!!!HAO: as protection.  Dog Chief's father killed the Sioux and
!!!HAO: captured his horse, this song commemorating his deed of
!!!HAO: valor.
!!!HTX: [no free translation]
!!!CNT: Pawnee
!!!TXO: Pawnee
!!!OCY: United States
!!!OCL: Frances Densmore
!!!YOR: Frances Densmore, "Pawnee Music"
!!!YOR: Bulletin 93, page 44, No. 17
!!!PPR: Smithsonian Institution, Bureau of American Ethnology
!!!PPR: Government Printing Office
!!!PDT: 1926
!!!PPP: Washington, DC, United States of America
!!!YEC: Electronic Copyright 2000 David Huron
!!!YER: September 2000
!!!YEN: United States of America
!!!ENC: David Huron
!!!RDT: September 3, 2000
!!!EEV: Release 1.0
!!!AIN: vox
